packages/ui-icons/svg/Solid/move-up.svg

<svg viewBox="0 0 1920 1920" version="1.1" xmlns="http://www.w3.org/2000/svg">
    <path d="M338.81755,398.616654 L745.624489,733.82015 L338.81755,1069.02365 L338.81755,846.759334 L225.878367,846.759334 L225.878367,1750.2728 L0,1750.2728 L0,620.880967 L338.81755,620.880967 L338.81755,398.616654 Z M1920,1524.38314 L1920,1750.26151 L677.668982,1750.26151 L677.668982,1524.38314 L1920,1524.38314 Z M1920,1072.51347 L1920,1298.50477 L677.668982,1298.50477 L677.668982,1072.51347 L1920,1072.51347 Z M1242.3649,620.869673 L1242.3649,846.74804 L1016.48653,846.74804 L1016.48653,620.869673 L1242.3649,620.869673 Z M1581.18245,620.869673 L1581.18245,846.74804 L1355.30408,846.74804 L1355.30408,620.869673 L1581.18245,620.869673 Z M1920,620.869673 L1920,846.74804 L1694.12163,846.74804 L1694.12163,620.869673 L1920,620.869673 Z M1920,169 L1920,394.991306 L677.668982,394.991306 L677.668982,169 L1920,169 Z" stroke="none" stroke-width="1" fill-rule="evenodd"/>
</svg>

<svg viewBox="0 0 1920 1920" version="1.1" xmlns="http://www.w3.org/2000/svg">
    <path d="M677.669 1750.262v-225.879H1920v225.879H677.669zm0-1355.27V169H1920v225.991H677.669zm0 903.513v-225.992H1920v225.992H677.669zm338.818-451.757V620.87h225.878v225.878h-225.878zm338.817 0V620.87h225.878v225.878h-225.878zm338.818 0V620.87H1920v225.878h-225.878zM338.818 620.881V398.617L745.624 733.82l-406.806 335.204V846.759h-112.94v903.514H0V620.88h338.818z" stroke="none" stroke-width="1" fill-rule="evenodd"/>
</svg>
